X:1
T:O Domine Jesu
T:Matthew Locke
T:Source : Cantica Sacra---London---W.Godbid---1674. Editor : André Vierendeels (01/12/17).
T:O Domine Jesu
T:©
T:©
T:©
C:Matthew Locke
Z:©
%%score [ 1 2 ] { 3 | 4 }
L:1/8
Q:1/4=97
M:2/2
K:Bb
V:1 treble nm="Soprano 1" snm="S 1"
V:2 treble nm="Soprano 2" snm="S 2"
V:3 treble nm="BC" snm="BC"
V:4 bass 
V:1
 B4 B4- | BB =B2 c2 d2 | e4 d4 | z dB>A B2 z2 | z AAA c3 d | B3 A BA A>G | G4 =BBB>B | %7
w: O Do-|* mi- ne Je- su|Chri- ste,|a- do- ro te,|a- do- ro te in|Cru- ce, vul- ne- ra- *|tum fel- le et a-|
 =B2 c>d B2 B2 | z4 z2 z d | e2 d/c/c c3 =B | c2 z2 z2 z f | d>ddf gf ed | d (c2 d) d4 | %13
w: ce- to po- ta- tim,|a-|ce- to _ po- ta- *|tum, te|de- pre- cor ut tu- * a _|vul- ne- * ra,|
 z2 ^cc dd/d/=Bc/d/ | ee c3 A B2- | BG A2 ^F2 z2 | z Acd cA d2- | dc c3 B B2 | Ad=ef d ^c2 d | %19
w: fiat re- me- di- um a- ni- me|me- ae mors que, mors|_ que tu- a|fit vi- ta me- a mors|_ que, mors que tu-|a fit vi- ta me- * *|
 d2 f3 e e2- | ed d3 c/d/ e/d/c/B/ | ABG F/E/ (G ^F2) G | !fermata!G8 |] %23
w: a, mors que, mors|_ que tu- * * * * * *|a fit vi- ta _ me- * *|a.|
V:2
 D4 G4- | GG G2 G2 G2 | G3 A =B4 | z4 z dA>G | ^FFF>F A3 A | A>GG F/E/ (G ^F2) G | G4 z4 | %7
w: O Do-|* mi- ne Je- su|Chri- * ste,|a- do- ro|te, a- do- ro te in|Cru- ce, vul- ne- * ra- * *|tum|
 z4 ddd>d | d2 e>f d2 d=B | c2 d/e/e e d3 | c2 z c A>A A2 | z2 z d ed cB | B A2 B B2 =BB | %13
w: fel- le et a-|ce- to po- ta- tum, a-|ce- to _ po- ta- *|tum, te de- pre- cor|ut tu- * a _|vul- * ne- ra fiat re-|
"^#" c2 c/c/=E F/G/^FF z | z2 e3 c d2- | d=B c2 AABc | ^FD z2 z2 B2- | BA A3 G G2 | GFGA F =E2 D | %19
w: me- di- um a- ni- me me- ae|mors que, mors-|* que tu- a fit vi- ta|me- a, mors|_ que, mors que tu-|a fit vi- ta me- * *|
 D2 d3 c c2- | cB B3 A/B<AG/ | ^FdB>A (B A2) G | !fermata!G8 |] %23
w: a, mors que, mors|_ que tu- * * * *|a fit vi- ta me- * *|a.|
V:3
 z8 | z8 | z8 | z8 | z8 | z8 |"^#" z8 |"^6" z8 |"^#" z8 | %9
"^6              5\n4               3" z8 | z8 | z8 | z8 | z8 | z8 | z8 |"^#""^#" z8 |"^#" z8 | %18
"^6" z8 | z8 |"^#" z8 | z8 | z8 |] %23
V:4
 G,4 E,4- | E,6 =B,,2 | C,4 G,,4 |"^b" G,,6 C,2 |"^#" D,8- |"^6" D,2 C,2 D,4 | %6
"^-natural" E,4 G,,4 |"^-natural" G,,8 |"^3   4   3" G,,8 | G,,8 | C,2 =E,,2 F,,4 | B,,4 E,4 | %12
 F,4 B,,2 G,,2 | =E,,2 A,,2 D,,2 G,,2 | C,4 F,3 D, |"^#" E,3 C, D,4 | D,8 | D,8 | %18
"^-natural""^#" D,2 ^C,D, A,,4 | B,,4 C,4 | ^F,,2 G,,2 E,2 C,2 | D,8 | !fermata!G,,8 |] %23

